X:1
T:Title
%%score { ( 1 4 ) | ( 2 3 ) }
L:1/8
M:3/4
K:F
V:1 treble nm="Grand Piano"
V:4 treble 
V:2 bass 
V:3 bass 
V:1
 z2 z2[Q:1/4=94] C2 | FG A2 [CAc]2 | [CGB][CFA] [CEG]2 C2 | [EG][EG] [EG]2 [GB]2 |[M:5/8] A>G F3 | %5
[M:1/8] F |[M:3/4] AB c2 fe | dd f3 [Fd] | cA [Ec]2 [GB]2 | A>G F4 | A>A Ac BA | [EG]4 z2 | %12
 A>A Ac BA | C>C Cd cB | A4 F2 | AB c2 fe | dd f3 [Fd] | cA [Ec]2 [GB]2 | A>G F4 | A>A Ac BA | %20
 [EG]4 z2 | A>A Ac BA | C>C Cd cB | A4 F2 | AB c2 fe | dd f3 [Fd] | cA [Ec]2 [GB]2 | A>G F4 |] %28
V:2
 z2 z2 [F,A,]2 | [F,A,C][F,B,C] [F,CF]2 F,2 | E,F, C,2 C,2 | [C,C][C,C] [C,C]2 [E,C]2 | %4
[M:5/8] [F,CF]>[F,B,C] [F,A,C]3 |[M:1/8] [F,A,C] |[M:3/4] z2[K:treble] [F,F]4 | %7
 [B,F][B,F] [B,DF]3[K:bass] [B,,B,] | [F,A,F][F,F] [C,G,]2 [E,C]2 | [F,CF]>[F,B,C] [F,A,C]4 | %10
 F>F FA GF | C,>C, C,B, A,G, | F>F FA GF | C,>C, C,[K:treble][B,CE] [A,CF][K:bass][G,CE] | %14
 [F,CF]4 [F,A,C]2 | [F,C][F,G,C][K:treble] [F,F]2- [F,DF][F,CF] | %16
 [B,F][B,F] [B,DF]3[K:bass] [B,,B,] | [F,A,F][F,F] [C,G,]2 [E,C]2 | [F,CF]>[F,B,C] [F,A,C]4 | %19
 F>F FA GF | C,>C, C,B, A,G, | F>F FA GF | C,>C, C,[K:treble][B,CE] [A,CF][K:bass][G,CE] | %23
 [F,CF]4 [F,A,C]2 | [F,C][F,G,C][K:treble] [F,F]2- [F,DF][F,CF] | %25
 [B,F][B,F] [B,DF]3[K:bass] [B,,B,] | [F,A,F][F,F] [C,G,]2 [E,C]2 | [F,CF]>[F,B,C] [F,A,C]4 |] %28
V:3
 x6 | x6 | x6 | x6 |[M:5/8] x5 |[M:1/8] x |[M:3/4] [F,C][F,G,C][K:treble] A,2 D[F,CF] | %7
 x5[K:bass] x | x6 | x6 | x6 | x6 | [F,C]4 z2 | x3[K:treble] x2[K:bass] x | x6 | %15
 z2[K:treble] A,2 z2 | x5[K:bass] x | x6 | x6 | x6 | x6 | [F,C]4 z2 | x3[K:treble] x2[K:bass] x | %23
 x6 | z2[K:treble] A,2 z2 | x5[K:bass] x | x6 | x6 |] %28
V:4
 x6 | x6 | x6 | x6 |[M:5/8] x5 |[M:1/8] x |[M:3/4] x6 | x6 | x6 | x6 | x6 | C>C CC CC | x6 | %13
 [EG]4 z2 | x6 | x6 | x6 | x6 | x6 | x6 | C>C CC CC | x6 | [EG]4 z2 | x6 | x6 | x6 | x6 | x6 |] %28

